!!!COM: Bach, Johann Sebastian
!!!OPR: Joh. Seb. Bachs vierstimmige Choralgesänge
!!!XEN: Four-part Chorales
!!!OTL: Chorale 63. Gott, der du selber bist das Licht
!!!SCT: BWV 316
!!!SCA: Thematisch-systematisches Verzeichnis der musikalischen Werke Johann Sebastian Bach: Bach-Werke-Verzeichnis (Schmieder)
!!!YOR: Bach Gesellschaft Edition xxxix
!!!ENC: Steven Rasmussen
!!!CDT: 1685/3//-1750/7/28/
!!!OCY: Deutschland
!!!YEC: Copyright (c) 1994, 2000 Center for Computer Assisted Research in the Humanities
!!!YEM: Rights to all derivative editions reserved
!!!YEN: United States of America
**kern	**kern	**kern	**kern	**silbe
*I:[BASSO]	*I:[TENORE]	*I:[ALTO]	*I:[SOPRANO]	*I:[SOPRANO]
*>[A,A,B]	*>[A,A,B]	*>[A,A,B]	*>[A,A,B,A,A,B,C]	*
*>A	*>A	*>A	*>A	*
*clefF4	*clefGv2	*clefG2	*clefG2	*
*k[b-e-]	*k[b-e-]	*k[b-e-]	*k[b-e-]	*
*g:	*g:	*g:	*g:	*
*M4/4	*M4/4	*M4/4	*M4/4	*
8GGL	8B-L	4g	4dd	Gott,nach-
8AAJ	8cJ	.	.	.
=1	=1	=1	=1	=1
4BB-	4d	4g	4g	der-dem
8AAL	8cL	8f#L	8aL	dudurch
8GGJ	8dJ	8gJ	8b-J	.
4FF#	8e-L	4.a	4cc	sel-dei-
.	8dJ	.	.	.
4GG	4d	.	4b-	-ber-ne
.	.	8g	.	.
=2	=2	=2	=2	=2
8CL	8e-L	8gL	4a	bistgro-
8AAJ	8cJ	16f#L	.	.
.	.	16enJJ	.	.
4D	8AL	4f#	4a	das-sse
.	16dL	.	.	.
.	16cJJ	.	.	.
4GG;	4B-;	4d;	4g;	Licht,Macht
4EEn	8cL	4g	4cc	dessder
.	8B-J	.	.	.
=3	=3	=3	=3	=3
8FFL	8AL	8fL	4cc	Güt'hel-
8GGJ	8B-J	8enJ	.	.
8AAL	8cL	4f	4cc	und-le
8FFJ	8AJ	.	.	.
(8BB-	4B-	4f	4dd	Treu-Tag
4B-)	.	.	.	.
.	4c	4f	4cc	-edie
8A	.	.	.	.
=4	=4	=4	=4	=4
8GL	8B-L	(8b-	4dd	stir-fin-
8FJ	8AJ	4dd)	.	.
4En	4G	.	4een	-bet-stre
.	.	8cc#	.	.
4D;	4A;	4dd;	4ff;	nicht,Nacht
4GG	4g	4b-	4dd	dirso
=5	=5	=5	=5	=5
4AA	8gL	4a	4cc	seikrÃ¤f-
.	8f#J	.	.	.
8BB-L	4g	8dL	4b-	itzt-tig
8CJ	.	8enJ	.	.
4D	8dL	4f#	4a	Lobhat
.	8cJ	.	.	.
8E-L	4B-	4g	4g	ge-ver-
8DJ	.	.	.	.
=6	=6	=6	=6	=6
4C	8e-L	4g	2a	-sun--drun-
.	8c	.	.	.
4D	8A	4f#	.	.
.	16dL	.	.	.
.	16cJJ	.	.	.
4GG;	4B-;	4d;	4g;	-gen:-gen,
*	*	*	*>B	*
=:|!	=:|!	=:|!	=:|!	=:|!
*>B	*>B	*>B	*>C	*
8FL	4c	4fn	4a	und
8E-J	.	.	.	.
=7	=7	=7	=7	=7
4D	4d	(8f	4b-	dei-
.	.	4b-)	.	.
4C	4e-	.	4cc	-ne
.	.	8a	.	.
(8BB-	4f	4b-	4dd	Gnad'
4B-)	.	.	.	.
.	4f	4cc	4ee-	und
8A	.	.	.	.
=8	=8	=8	=8	=8
8B-L	4f	(8cc	4dd	Wun-
8DJ	.	4b-)	.	.
8E-L	8gL	.	4cc	-der-
8FJ	16fL	8a	.	.
.	16e-JJ	.	.	.
4BB-;	4d;	4f;	4b-;	-tat
4BB-	4d	4f	4dd	mich,
=9	=9	=9	=9	=9
8AAL	8cL	8fL	4ff	da
8FFJ	8dJ	8aJ	.	.
8GGL	8B-L	8gL	4ee-	ich
8AAJ	8cJ	8fJ	.	.
4BB-	4d	4f	4dd	schlief,
4C	8cL	4e-	8gL	er-
.	8F#J	.	8aJ	.
=10	=10	=10	=10	=10
8BB-L	8GL	(8d	4b-	-hal-
8GGJ	8dJ	4g)	.	.
4D	8.dL	.	4a	-ten
.	.	8f#	.	.
.	16cJk	.	.	.
4GG;	4Bn;	4d;	4g;	hat.
==|!	==|!	==|!	==|!	==|!
*-	*-	*-	*-	*-
!!!RWG: Key is interpreted using the Humdrum key tool.
!!!URL-pdf: https://s9.imslp.org/files/imglnks/usimg/6/6b/IMSLP24489-PMLP09471-CCARH_Bach_Chorales.pdf#page=44 Musedata edition
!!!URL-pdf: https://s9.imslp.org/files/imglnks/usimg/7/7a/IMSLP04155-Bach_-_BGA_253-438.pdf#page=34 	Bach-Gesellschaft Ausgabe, Band 39 (pp.175-276) Leipzig: Breitkopf und Härtel, 1892. Plate B.W. XXXIX.
!!!END: 1994/06/06
!!!EMD: Converted from MuseData to Humdrum Dec 19, 2000, by Andreas Kornstaedt using muse2kern.
!!!EED: Craig Stuart Sapp
!!!EEV: 2024/03/31
!!!filter-keyboard: satb2gs
!!!title: @{OTL} (@{SCT})
